X:77
T: The Kesh Jig
M: 6/8
L: 1/8
R: jig
K: Gmaj
Q:1/4=140
|: "G" G2 G GAB | "D" A2 A ABd | "G" edd gdd | "C" edB "D" dBA|
   "G" G2 G GAB | "D" A2 A ABd | "G" edd gdB |1 "D" AGF "G" uG2 uD :|2 "D" AGF "G" uG2 uA |
|: "G" vB2 d dBd | "C" ege "G" dBA | B2 d dBG | "D" A2 A AGA |
   "G" B2 d dBd | "C" ege "G" dBd | g2 g "D" a(ga) |1 "G" bgf ug2 ud :|2 "G" bgf g3 |]
N:Amanda Saucier


